assets/svg/networks/wallet_ton.svg

<svg width="36" height="36" viewBox="0 0 36 36" fill="none" xmlns="http://www.w3.org/2000/svg">
<g clip-path="url(#clip0_47849_185510)">
<rect width="36" height="36" rx="12" fill="#0088CC"/>
<path fill-rule="evenodd" clip-rule="evenodd" d="M11.2449 9H24.7532C27.2336 9 28.8109 11.6832 27.5633 13.8456L19.2253 28.2916C19.1007 28.5065 18.9218 28.6849 18.7066 28.8088C18.4914 28.9328 18.2474 28.9981 17.999 28.9981C17.7507 28.9981 17.5067 28.9328 17.2915 28.8088C17.0762 28.6849 16.8974 28.5065 16.7728 28.2916L8.43811 13.8456C7.18881 11.6799 8.7628 9 11.2449 9ZM19.229 11.4658V23.9588L21.0453 20.4516L25.4228 12.6129C25.4898 12.4959 25.5247 12.3632 25.524 12.2282C25.5233 12.0933 25.487 11.961 25.4188 11.8446C25.3506 11.7282 25.2528 11.6319 25.1354 11.5654C25.0181 11.4989 24.8852 11.4645 24.7503 11.4658H19.229ZM11.242 11.4691C11.1074 11.4677 10.9748 11.5018 10.8576 11.568C10.7404 11.6342 10.6427 11.7302 10.5745 11.8462C10.5063 11.9623 10.4699 12.0943 10.469 12.2289C10.4682 12.3636 10.5029 12.496 10.5696 12.6129L14.9504 20.4483L16.7667 23.9588V11.4691H11.242Z" fill="white"/>
</g>
<defs>
<clipPath id="clip0_47849_185510">
<rect width="36" height="36" fill="white"/>
</clipPath>
</defs>
</svg>

<svg xmlns="http://www.w3.org/2000/svg" width="36" height="36" fill="none"><g clip-path="url(#a)"><rect width="36" height="36" fill="#08C" rx="12"/><path fill="#fff" fill-rule="evenodd" d="M11.245 9h13.508c2.48 0 4.058 2.683 2.81 4.846l-8.338 14.446a1.417 1.417 0 0 1-2.452 0L8.438 13.846C7.188 11.68 8.763 9 11.245 9m7.984 2.466v12.493l1.816-3.507 4.378-7.84a.766.766 0 0 0-.673-1.146zm-7.987.003a.765.765 0 0 0-.672 1.144l4.38 7.835 1.817 3.51V11.47z" clip-rule="evenodd"/></g><defs><clipPath id="a"><path fill="#fff" d="M0 0h36v36H0z"/></clipPath></defs></svg>
